X: 42465
T: Wet The Tea
R: jig
M: 6/8
K: Eminor
e2f|:gfe fed|BAF {A}GEE|FDD FGA|BAB GEe|
gfe fed|BAF {A}GEE|FDD FGA|GED E3:|
|:~e3 geB|~e3 ~g2b|afd dAF|DFA d2B|
[1 ~e3 geB|~e3 ~g2a|agb afd|efd e2B:|
[2 cBc dB/^c/d|ede g2e|dBA GFD|EFD E3||

